docs/img/svg/download.svg

<svg xmlns="http://www.w3.org/2000/svg" preserveAspectRatio="xMidYMid" width="21" height="21" viewBox="0 0 21 21"><defs><style>.cls-1{fill:#818181;fill-rule:evenodd}</style></defs><path d="M17.041 5.287C16.411 2.236 13.693 0 10.5 0 7.307 0 4.588 2.236 3.959 5.287 1.729 5.571 0 7.467 0 9.756c0 2.484 2.036 4.506 4.539 4.506h5.285v4.17l-1.549-1.538-.956.949L10.5 21l3.181-3.157-.956-.949-1.549 1.538v-4.17h5.284c2.503 0 4.54-2.022 4.54-4.506 0-2.289-1.729-4.185-3.959-4.469zm-.581 7.633h-5.284V7.131H9.824v5.789H4.539c-1.758 0-3.188-1.419-3.188-3.164S2.782 6.592 4.54 6.592h.6L5.211 6c.316-2.656 2.59-4.659 5.289-4.659S15.473 3.344 15.789 6l.07.592h.601c1.758 0 3.188 1.419 3.188 3.164s-1.43 3.164-3.188 3.164z" class="cls-1"/></svg>

<svg xmlns="http://www.w3.org/2000/svg" xmlns:xlink="http://www.w3.org/1999/xlink" preserveAspectRatio="xMidYMid" width="21" height="21" viewBox="0 0 21 21">
  <defs>
    <style>
      .cls-1 {
        fill: #818181;
        fill-rule: evenodd;
      }
    </style>
  </defs>
  <path d="M17.041,5.287 C16.411,2.236 13.693,-0.000 10.500,-0.000 C7.307,-0.000 4.588,2.236 3.959,5.287 C1.729,5.571 -0.000,7.467 -0.000,9.756 C-0.000,12.240 2.036,14.262 4.539,14.262 L9.824,14.262 L9.824,18.432 L8.275,16.894 L7.319,17.843 L10.500,21.000 L13.681,17.843 L12.725,16.894 L11.176,18.432 L11.176,14.262 L16.460,14.262 C18.963,14.262 21.000,12.240 21.000,9.756 C21.000,7.467 19.271,5.571 17.041,5.287 ZM16.460,12.920 L11.176,12.920 L11.176,7.131 L9.824,7.131 L9.824,12.920 L4.539,12.920 C2.781,12.920 1.351,11.501 1.351,9.756 C1.351,8.011 2.782,6.592 4.540,6.592 L5.140,6.592 L5.211,6.000 C5.527,3.344 7.801,1.341 10.500,1.341 C13.199,1.341 15.473,3.344 15.789,6.000 L15.859,6.592 L16.460,6.592 C18.218,6.592 19.648,8.011 19.648,9.756 C19.648,11.501 18.218,12.920 16.460,12.920 Z" class="cls-1"/>
</svg>
